public/presentation-analytics.svg

<svg width="84" height="71" viewBox="0 0 84 71" fill="none" xmlns="http://www.w3.org/2000/svg">
<rect x="0.0695801" y="0.634888" width="83.8608" height="70" rx="15.2174" fill="#292732"/>
<path fill-rule="evenodd" clip-rule="evenodd" d="M38.1722 34.4282C38.113 33.4604 37.8257 32.5203 37.3339 31.6847C36.9781 31.0942 36.5324 30.5628 36.0129 30.1096C35.8202 29.9517 35.5952 29.838 35.3538 29.7766C35.1124 29.7151 34.8604 29.7074 34.6157 29.754C34.2918 29.8585 33.9923 30.0271 33.7348 30.2497C33.4773 30.4722 33.2672 30.7442 33.1169 31.0496C32.4564 32.1927 31.7959 34.2758 31.4911 34.733C30.7171 35.9816 29.7179 37.0756 28.5443 37.9593L28.3157 38.1117C28.5189 37.7814 28.7221 37.502 28.9 37.1718C29.369 36.2711 29.6533 35.2858 29.7362 34.2737C29.8191 33.2616 29.6989 32.2432 29.3826 31.2782C28.6829 29.483 27.4046 27.9723 25.75 26.985C24.1262 25.9632 22.2306 25.4582 20.3137 25.5371C18.7027 25.59 17.1363 26.0785 15.7809 26.9508C14.4255 27.8231 13.3319 29.0464 12.6165 30.4907C11.9547 31.9633 11.7777 33.608 12.111 35.1877C12.4443 36.7674 13.2706 38.2005 14.4709 39.2802C14.7802 39.5861 15.1207 39.8586 15.487 40.0931C15.2146 40.2084 14.9513 40.3443 14.6995 40.4996C14.2095 40.858 13.7582 41.2667 13.3532 41.719C12.5605 42.681 11.996 43.81 11.7019 45.0214C11.4096 46.2404 11.4096 47.5113 11.7019 48.7303C11.9246 49.8066 12.4451 50.7987 13.2042 51.5937C13.9632 52.3886 14.9302 52.9544 15.9951 53.2266V53.5569C16.1729 55.2081 16.5032 56.8085 16.7064 58.3835C16.7064 58.6058 16.7947 58.8191 16.9519 58.9763C17.1091 59.1335 17.3224 59.2218 17.5447 59.2218C17.7451 59.2039 17.9323 59.1144 18.0722 58.9698C18.2122 58.8253 18.2954 58.6352 18.3068 58.4343C18.4592 56.6561 18.6116 54.8271 18.637 52.9726V49.7972C18.4935 48.2265 18.4511 46.6483 18.51 45.0722C18.5323 44.9787 18.5354 44.8816 18.5192 44.7868C18.5029 44.692 18.4675 44.6015 18.4153 44.5208C18.3631 44.4401 18.295 44.3708 18.2152 44.3171C18.1354 44.2634 18.0456 44.2265 17.9512 44.2085C17.7627 44.1706 17.567 44.2078 17.4056 44.3122C17.2442 44.4166 17.1301 44.5799 17.0874 44.7673C16.4211 46.5451 16.0188 48.4109 15.8935 50.3053V51.1182C15.281 50.6478 14.8142 50.0137 14.5471 49.2891C14.2039 48.0767 14.2039 46.7927 14.5471 45.5803C14.6587 44.6939 14.9252 43.834 15.3346 43.0399C15.5913 42.5414 15.9258 42.0869 16.3253 41.6936C16.6302 41.4141 16.9604 41.1855 17.2653 40.9315L17.6463 41.1093C19.2541 41.5274 20.9145 41.7071 22.5745 41.6427C22.7699 41.6427 22.9573 41.5651 23.0955 41.427C23.2336 41.2888 23.3112 41.1014 23.3112 40.906C23.3112 40.7107 23.2336 40.5233 23.0955 40.3851C22.9573 40.247 22.7699 40.1694 22.5745 40.1694C21.0859 40.1367 19.6116 39.871 18.2052 39.3819C17.3669 39.0804 16.6283 38.5529 16.0713 37.8577C15.2876 37.0468 14.774 36.0133 14.6012 34.8989C14.4283 33.7845 14.6047 32.644 15.106 31.6338C15.6418 30.654 16.4264 29.8328 17.3809 29.253C18.3353 28.6732 19.4258 28.3553 20.5423 28.3314C21.9149 28.2576 23.2802 28.5748 24.4798 29.2459C25.7045 29.8858 26.6926 30.9005 27.2996 32.1419C27.7949 33.5059 27.7402 35.009 27.1471 36.3335C26.899 37.0289 26.5023 37.6618 25.9846 38.1883C25.4669 38.7148 24.8407 39.1221 24.1496 39.3819C24.0456 39.411 23.9485 39.4606 23.864 39.5277C23.7794 39.5949 23.7091 39.6781 23.657 39.7727C23.605 39.8673 23.5724 39.9713 23.561 40.0787C23.5496 40.186 23.5597 40.2946 23.5907 40.398C23.6319 40.5352 23.7109 40.6581 23.8188 40.7524C23.9266 40.8468 24.0589 40.9088 24.2004 40.9315C24.2612 41.0696 24.3674 41.1827 24.5014 41.252C24.6355 41.3214 24.7892 41.3427 24.9371 41.3125C26.6105 41.01 28.2076 40.3798 29.6367 39.4581C31.0738 38.5233 32.3374 37.3456 33.3709 35.9778C33.625 35.6222 34.1838 33.4375 34.7935 32.4468C34.7935 32.6754 34.9968 32.9548 35.0222 33.031C35.3399 33.6406 35.4807 34.327 35.4286 35.0125C35.363 35.8129 35.1833 36.5999 34.8951 37.3496C34.4691 38.5323 33.8698 39.6453 33.1169 40.652C32.3823 41.7102 31.5301 42.6818 30.5766 43.548C29.9923 44.1069 28.6967 44.8182 28.0363 45.5294C27.716 45.7965 27.4414 46.114 27.2234 46.4694C27.0515 46.8603 26.99 47.2908 27.0455 47.7141C27.0455 48.4762 27.5028 49.6702 27.5536 50.0766C27.706 51.296 27.8584 52.617 27.9092 53.7855C27.9855 55.0122 27.9855 56.2424 27.9092 57.469C27.8802 57.5852 27.8764 57.7063 27.8981 57.8242C27.9198 57.942 27.9665 58.0538 28.0351 58.152C28.1036 58.2503 28.1925 58.3327 28.2956 58.3937C28.3987 58.4547 28.5137 58.4929 28.6328 58.5058C28.7519 58.5186 28.8724 58.5057 28.9861 58.4681C29.0998 58.4304 29.2042 58.3688 29.2921 58.2874C29.38 58.206 29.4494 58.1067 29.4957 57.9962C29.542 57.8857 29.5641 57.7666 29.5605 57.6468C29.7126 56.3483 29.7889 55.0421 29.7891 53.7347V49.8734C29.7891 49.467 30.0177 47.8157 29.6113 47.3331L32.4818 45.377C33.6161 44.4276 34.6311 43.3443 35.5048 42.1508C36.4105 40.9349 37.1297 39.5907 37.6387 38.1625C38.048 36.9619 38.229 35.6954 38.1722 34.4282Z" fill="#46C1E3"/>
<path fill-rule="evenodd" clip-rule="evenodd" d="M57.1737 17.5604C55.929 18.475 54.6334 19.3387 53.3886 20.1008C52.1664 20.9324 50.8938 21.6874 49.5781 22.3617C48.689 22.8697 47.7745 23.3016 46.86 23.7334C45.9455 24.1653 44.9801 24.648 44.0148 25.0544C43.0495 25.4609 41.4745 26.1214 40.0519 26.6294C39.9585 26.6561 39.8713 26.7009 39.7952 26.7613C39.7191 26.8217 39.6557 26.8965 39.6085 26.9815C39.5613 27.0664 39.5313 27.1598 39.5202 27.2563C39.5091 27.3528 39.5172 27.4505 39.5438 27.5439C39.5705 27.6373 39.6154 27.7246 39.6758 27.8007C39.7362 27.8768 39.811 27.9402 39.8959 27.9874C39.9808 28.0346 40.0742 28.0645 40.1707 28.0756C40.2672 28.0867 40.365 28.0787 40.4584 28.052C42.666 27.7235 44.854 27.2741 47.0124 26.7056C48.438 26.2357 49.816 25.6318 51.1277 24.902C52.2155 24.2236 53.2591 23.4769 54.2523 22.6665C55.7003 21.4726 57.0467 20.1262 58.4185 18.856C58.5903 18.6909 58.6895 18.4644 58.6942 18.2262C58.699 17.988 58.609 17.7577 58.4439 17.5858C58.2788 17.414 58.0523 17.3148 57.8141 17.3101C57.5759 17.3053 57.3455 17.3954 57.1737 17.5604Z" fill="#46C1E3"/>
<path fill-rule="evenodd" clip-rule="evenodd" d="M45.082 28.5093C44.8934 28.4631 44.6942 28.4932 44.5277 28.5931C44.3612 28.693 44.2409 28.8546 44.1929 29.0427C43.715 30.0524 43.3405 31.1077 43.0751 32.1927C42.9683 32.6605 42.9004 33.1363 42.8719 33.6153C42.8467 34.0807 42.8467 34.5471 42.8719 35.0125C42.8719 36.1302 43.1768 37.1718 43.3546 38.2387C43.3546 38.461 43.4429 38.6743 43.6001 38.8315C43.7573 38.9887 43.9706 39.077 44.1929 39.077C44.4152 39.077 44.6284 38.9887 44.7857 38.8315C44.9429 38.6743 45.0312 38.461 45.0312 38.2387C45.0312 37.2226 45.3614 36.2065 45.5139 35.1395C45.5897 34.711 45.6406 34.2784 45.6663 33.8439V32.523C45.6663 31.456 45.5139 30.4653 45.6663 29.4492C45.6925 29.349 45.6981 29.2445 45.6827 29.1421C45.6672 29.0397 45.631 28.9415 45.5763 28.8535C45.5217 28.7656 45.4496 28.6897 45.3646 28.6305C45.2796 28.5713 45.1835 28.53 45.082 28.5093Z" fill="#46C1E3"/>
<path fill-rule="evenodd" clip-rule="evenodd" d="M52.4488 25.7403C52.2571 25.7186 52.0646 25.773 51.9126 25.8918C51.7606 26.0105 51.6612 26.1842 51.6359 26.3754C51.1887 27.7199 50.8406 29.0953 50.5943 30.4907C50.4974 31.0961 50.438 31.707 50.4165 32.3197V34.1234C50.4165 35.5459 50.7467 36.9431 50.95 38.3403C50.9629 38.5605 51.0596 38.7673 51.2202 38.9185C51.3808 39.0696 51.5932 39.1536 51.8137 39.1532C51.9238 39.1499 52.0322 39.125 52.1326 39.0798C52.2331 39.0346 52.3236 38.97 52.3991 38.8898C52.4746 38.8096 52.5336 38.7153 52.5726 38.6123C52.6116 38.5093 52.63 38.3996 52.6266 38.2895C52.6266 36.8923 52.9314 35.5459 53.0584 34.1742C53.0584 33.5899 53.0584 33.0056 53.1855 32.4213C53.3125 31.8371 53.1855 31.2528 53.1855 30.6685C53.1855 29.2967 53.0076 27.9504 53.0076 26.5532C53.0315 26.3726 52.9876 26.1895 52.8844 26.0394C52.7811 25.8892 52.626 25.7827 52.4488 25.7403Z" fill="#46C1E3"/>
<path fill-rule="evenodd" clip-rule="evenodd" d="M57.1739 27.6456C57.1739 28.3823 57.0215 29.1444 56.9707 29.9065C56.9326 30.6596 56.9326 31.4142 56.9707 32.1674C57.0753 33.9622 57.3217 35.746 57.7074 37.502C57.7164 37.6105 57.7479 37.716 57.7998 37.8117C57.8516 37.9074 57.9228 37.9914 58.0087 38.0582C58.0946 38.1251 58.1935 38.1734 58.299 38.2001C58.4046 38.2268 58.5145 38.2313 58.6219 38.2133C58.84 38.1878 59.0394 38.0776 59.1772 37.9066C59.3149 37.7356 59.3801 37.5174 59.3586 37.2988C59.3586 35.546 59.511 33.8186 59.6126 32.0657C59.6126 30.8972 59.8159 29.7286 59.8159 28.5601C59.8159 26.5532 59.6889 24.5718 59.5872 22.5903C59.5942 22.4935 59.5819 22.3963 59.5511 22.3043C59.5203 22.2123 59.4717 22.1272 59.4079 22.054C59.3442 21.9809 59.2667 21.921 59.1797 21.8779C59.0928 21.8348 58.9982 21.8093 58.9014 21.8028C58.8059 21.7959 58.71 21.8084 58.6194 21.8394C58.5288 21.8705 58.4455 21.9195 58.3743 21.9836C58.3032 22.0476 58.2457 22.1254 58.2053 22.2122C58.1649 22.299 58.1424 22.393 58.1393 22.4887C57.7328 24.1907 57.3264 25.8927 57.1739 27.6456Z" fill="#46C1E3"/>
<path fill-rule="evenodd" clip-rule="evenodd" d="M71.6791 12.8862C68.1304 12.428 64.561 12.1482 60.9843 12.0479H53.0077C50.3403 12.0479 47.6984 12.0479 45.0564 12.2003H39.5947C36.8342 12.2003 34.0653 12.3019 31.2879 12.5052C28.2141 12.683 25.1403 12.9624 22.0665 13.4197C21.8711 13.4433 21.6931 13.5435 21.5716 13.6983C21.4501 13.8532 21.3951 14.0499 21.4187 14.2453C21.4423 14.4407 21.5425 14.6187 21.6973 14.7402C21.8522 14.8617 22.0489 14.9167 22.2443 14.8931C23.6923 14.7915 25.1657 14.7661 26.6899 14.7407C26.6659 14.8236 26.6659 14.9117 26.6899 14.9947C26.4232 16.2026 26.2197 17.4236 26.0802 18.6528C26.0422 19.1686 26.0422 19.6865 26.0802 20.2024V21.7774C26.0802 22.9967 26.4358 24.1907 26.6137 25.41C26.6266 25.6302 26.7233 25.837 26.8839 25.9882C27.0445 26.1393 27.2568 26.2233 27.4774 26.2229C27.6703 26.1924 27.8458 26.0935 27.9717 25.9442C28.0977 25.795 28.1656 25.6053 28.1633 25.41C28.3157 24.1907 28.4935 22.8697 28.5951 21.752V20.2024V18.6528C28.5951 17.408 28.1887 16.2649 27.9854 15.0455V14.7153H29.2048C32.4056 14.7153 35.6064 14.8677 38.8072 14.9439H45.2597C47.3935 14.9439 50.2133 14.9439 52.7028 14.6899C56.3863 14.5374 60.0952 14.2834 63.7787 14.258C65.3283 14.258 66.8525 14.258 68.3767 14.4358C68.1734 17.8653 67.9702 21.2947 67.8686 24.7496V30.6431V36.5621C67.8686 38.5435 67.6654 40.4742 67.4367 42.4303C67.4073 42.6519 67.4649 42.8764 67.5976 43.0565C67.7302 43.2365 67.9276 43.3581 68.148 43.3956C68.3668 43.4246 68.5882 43.3662 68.7641 43.233C68.9401 43.0999 69.0564 42.9027 69.088 42.6843C69.917 38.7505 70.4435 34.759 70.663 30.7447C70.663 28.3568 70.79 25.9435 70.663 23.5556C70.663 20.5072 70.2819 17.4842 70.0787 14.4866H71.7045C71.9068 14.4805 72.1001 14.4013 72.2486 14.2638C72.3971 14.1263 72.4909 13.9397 72.5125 13.7385C72.5342 13.5372 72.4823 13.3349 72.3665 13.1689C72.2507 13.003 72.0787 12.8845 71.8823 12.8354L71.6791 12.8862Z" fill="#46C1E3"/>
<path fill-rule="evenodd" clip-rule="evenodd" d="M66.1157 42.2778C63.3329 42.7037 60.5225 42.9244 57.7072 42.9383H49.8322H37.8419C37.6479 42.9309 37.4585 42.9977 37.3122 43.1252C37.1658 43.2526 37.0736 43.4311 37.0544 43.6242C37.0475 43.721 37.0597 43.8182 37.0905 43.9102C37.1213 44.0023 37.1699 44.0873 37.2337 44.1605C37.2974 44.2337 37.375 44.2935 37.4619 44.3366C37.5488 44.3798 37.6434 44.4053 37.7402 44.4117C40.2806 44.7419 42.8209 45.0976 45.2088 45.4024C45.1259 45.5829 45.0579 45.7698 45.0056 45.9613C44.9805 46.1723 44.9805 46.3854 45.0056 46.5964C44.9831 46.8075 44.9831 47.0204 45.0056 47.2315C45.0164 47.3583 45.0164 47.4857 45.0056 47.6125C44.3954 47.843 43.8562 48.2293 43.4417 48.7329C43.0272 49.2365 42.7519 49.84 42.6431 50.4831C42.6431 50.6101 41.9318 55.0557 47.5459 54.5984C49.629 54.5984 50.5181 52.7948 50.4419 50.9912C50.3932 50.1437 50.0803 49.3328 49.5473 48.6722C49.0142 48.0116 48.2877 47.5344 47.4697 47.3077C47.4807 47.2575 47.4807 47.2055 47.4697 47.1553C47.4945 46.9443 47.4945 46.7311 47.4697 46.5202C47.5062 46.3101 47.5062 46.0952 47.4697 45.8851V45.6819C48.9177 45.8089 50.3403 45.8851 51.7883 45.8851C53.2363 45.8851 54.7096 45.8851 56.1576 45.7581C59.5886 45.5241 62.9904 44.9713 66.3189 44.1069C66.5379 44.0597 66.7292 43.9275 66.8507 43.7393C66.9721 43.5511 67.0139 43.3224 66.9667 43.1034C66.9196 42.8845 66.7874 42.6932 66.5992 42.5717C66.411 42.4502 66.1823 42.4085 65.9633 42.4557L66.1157 42.2778ZM48.3334 51.0928C48.4858 51.8041 48.3334 52.617 47.5967 52.744C47.5967 52.744 45.0564 54.0142 45.0564 51.296C45.1039 50.9163 45.2838 50.5654 45.5645 50.3053C45.7539 50.0983 45.9944 49.9447 46.262 49.86C46.5295 49.7753 46.8146 49.7624 47.0887 49.8226C47.4032 49.8709 47.6932 50.0215 47.9136 50.2511C48.134 50.4807 48.2726 50.7765 48.308 51.0928H48.3334Z" fill="#46C1E3"/>
</svg>

<svg xmlns="http://www.w3.org/2000/svg" width="84" height="71" fill="none"><rect width="83.861" height="70" x=".07" y=".635" fill="#292732" rx="15.217"/><path fill="#46C1E3" fill-rule="evenodd" d="M38.172 34.428a6.15 6.15 0 0 0-.838-2.743 6.6 6.6 0 0 0-1.321-1.575 1.7 1.7 0 0 0-1.397-.356 2.54 2.54 0 0 0-1.5 1.296c-.66 1.143-1.32 3.226-1.625 3.683a11.9 11.9 0 0 1-2.947 3.226l-.228.153c.203-.33.406-.61.584-.94a7.62 7.62 0 0 0 .483-5.894 8.66 8.66 0 0 0-3.633-4.293 9.48 9.48 0 0 0-5.436-1.448 8.92 8.92 0 0 0-7.697 4.954 7.62 7.62 0 0 0 1.854 8.79q.466.46 1.016.812a6 6 0 0 0-.787.407c-.49.358-.942.767-1.347 1.219a8.26 8.26 0 0 0-1.651 3.302 7.95 7.95 0 0 0 0 3.71 5.87 5.87 0 0 0 4.293 4.496v.33c.178 1.651.508 3.252.711 4.826a.84.84 0 0 0 .839.839.84.84 0 0 0 .762-.788c.152-1.778.305-3.607.33-5.461v-3.176a37 37 0 0 1-.127-4.725.713.713 0 0 0-.559-.864.737.737 0 0 0-.864.56 19.4 19.4 0 0 0-1.194 5.537v.813a4.1 4.1 0 0 1-1.346-1.829 6.8 6.8 0 0 1 0-3.709 7.6 7.6 0 0 1 .788-2.54c.256-.499.59-.953.99-1.346.305-.28.635-.509.94-.763l.381.178c1.608.418 3.268.598 4.929.534a.737.737 0 0 0 0-1.474 14.3 14.3 0 0 1-4.37-.787 4.83 4.83 0 0 1-2.134-1.524 5.46 5.46 0 0 1-.965-6.224 6.35 6.35 0 0 1 5.436-3.303 7.27 7.27 0 0 1 3.938.915 6.48 6.48 0 0 1 2.82 2.896 5.6 5.6 0 0 1-.153 4.191 5.08 5.08 0 0 1-2.997 3.049.81.81 0 0 0-.56 1.016.76.76 0 0 0 .61.533.66.66 0 0 0 .737.382 12.9 12.9 0 0 0 4.7-1.855 14.8 14.8 0 0 0 3.734-3.48c.254-.356.813-2.54 1.422-3.531 0 .228.204.508.23.584.317.61.458 1.296.406 1.982a8.4 8.4 0 0 1-.534 2.337 12.7 12.7 0 0 1-1.778 3.302 17 17 0 0 1-2.54 2.896c-.585.559-1.88 1.27-2.54 1.981-.321.267-.596.585-.814.94-.171.391-.233.822-.177 1.245 0 .762.457 1.956.508 2.363.152 1.219.304 2.54.355 3.709a30 30 0 0 1 0 3.683.84.84 0 1 0 1.652.178 34 34 0 0 0 .228-3.912v-3.862c0-.406.229-2.057-.178-2.54l2.87-1.956a18.3 18.3 0 0 0 3.024-3.226 15.2 15.2 0 0 0 2.134-3.989c.409-1.2.59-2.467.533-3.734M57.174 17.56a55 55 0 0 1-3.785 2.54 36 36 0 0 1-3.81 2.262c-.89.508-1.804.94-2.719 1.371s-1.88.915-2.845 1.321c-.965.407-2.54 1.067-3.963 1.575a.74.74 0 0 0 .406 1.423 61 61 0 0 0 6.554-1.346 23.8 23.8 0 0 0 4.116-1.804 30 30 0 0 0 3.124-2.236c1.448-1.193 2.795-2.54 4.166-3.81a.898.898 0 1 0-1.244-1.296M45.082 28.51a.737.737 0 0 0-.89.533 16.6 16.6 0 0 0-1.117 3.15 9 9 0 0 0-.203 1.422 13 13 0 0 0 0 1.398c0 1.117.305 2.159.483 3.226a.838.838 0 1 0 1.676 0c0-1.016.33-2.032.483-3.1q.114-.642.152-1.295v-1.321c0-1.067-.152-2.058 0-3.074a.765.765 0 0 0-.584-.94M52.449 25.74a.736.736 0 0 0-.813.635 29 29 0 0 0-1.042 4.116 15 15 0 0 0-.178 1.829v1.803c0 1.423.33 2.82.534 4.217a.863.863 0 0 0 .864.813.84.84 0 0 0 .813-.864c0-1.397.304-2.743.431-4.115 0-.584 0-1.168.127-1.753.127-.584 0-1.168 0-1.752 0-1.372-.177-2.719-.177-4.116a.736.736 0 0 0-.56-.813M57.174 27.646c0 .736-.152 1.498-.203 2.26a22 22 0 0 0 0 2.261 34 34 0 0 0 .736 5.335.786.786 0 0 0 .915.711.84.84 0 0 0 .737-.914c0-1.753.152-3.48.254-5.233 0-1.169.203-2.337.203-3.506 0-2.007-.127-3.988-.229-5.97a.734.734 0 0 0-.686-.787.71.71 0 0 0-.762.686c-.406 1.702-.813 3.404-.965 5.157" clip-rule="evenodd"/><path fill="#46C1E3" fill-rule="evenodd" d="M71.68 12.886a107 107 0 0 0-10.696-.838h-7.976c-2.668 0-5.31 0-7.952.152h-5.461q-4.14 0-8.307.305c-3.074.178-6.148.457-9.221.915a.742.742 0 0 0 .177 1.473c1.448-.102 2.922-.127 4.446-.152a.46.46 0 0 0 0 .254 36 36 0 0 0-.61 3.658 10.6 10.6 0 0 0 0 1.55v1.574c0 1.22.356 2.414.534 3.633a.863.863 0 0 0 .863.813.81.81 0 0 0 .686-.813c.153-1.22.33-2.54.432-3.658v-3.1c0-1.244-.406-2.387-.61-3.607v-.33h1.22c3.2 0 6.401.153 9.602.229h6.453c2.134 0 4.953 0 7.443-.254 3.683-.153 7.392-.407 11.076-.432 1.55 0 3.074 0 4.598.178-.204 3.43-.407 6.859-.508 10.314v11.813c0 1.98-.204 3.911-.432 5.867a.864.864 0 0 0 .711.966.84.84 0 0 0 .94-.712 79 79 0 0 0 1.575-11.94c0-2.387.127-4.8 0-7.188 0-3.049-.381-6.072-.584-9.07h1.626a.838.838 0 0 0 .177-1.65z" clip-rule="evenodd"/><path fill="#46C1E3" fill-rule="evenodd" d="M66.116 42.278a57.5 57.5 0 0 1-8.409.66H37.842a.76.76 0 0 0-.788.686.736.736 0 0 0 .686.788c2.54.33 5.08.686 7.469.99q-.125.271-.203.56a2.7 2.7 0 0 0 0 .634 3 3 0 0 0 0 .636q.015.19 0 .38a3.74 3.74 0 0 0-2.363 2.871c0 .127-.711 4.573 4.903 4.115 2.083 0 2.972-1.803 2.896-3.607a4.06 4.06 0 0 0-2.972-3.683.4.4 0 0 0 0-.153 2.7 2.7 0 0 0 0-.635c.036-.21.036-.425 0-.635v-.203c1.448.127 2.87.203 4.318.203s2.922 0 4.37-.127a55.4 55.4 0 0 0 10.16-1.651.845.845 0 0 0-.355-1.651zm-17.783 8.815c.153.711 0 1.524-.736 1.651 0 0-2.54 1.27-2.54-1.448.047-.38.227-.73.508-.99a1.6 1.6 0 0 1 1.524-.483 1.45 1.45 0 0 1 1.219 1.27z" clip-rule="evenodd"/></svg>
